X: 1483
T: Nihâvend-i Kebîr Seyir
C: Şefik Gürmeriç
O: Turkey
F: http://compmusic.upf.edu/node/140
N: nihavendikebir--seyir--sofyan--1--sefik_gurmeric
N: makam= nihavendikebir
N: form= seyir
N: usul= sofyan = 4/4
M: 4/4
L: 1/16
K: C _B _e  
Q: 1/4=60
%%MIDI tuningsystem comma53
d8 a4 g4  | f=efg f2_e2 d8  | c4 d2e2 d4 c4  | \
w:   |   |   | 
BABc B2A2 G8  | 
w:   | 
d8 =e2f2 d4  | a2g2 f2=e2 d2^c=B c2d2  | \
w:   |   | 
^c4 d8 c2d2  | e12 z4  | d6f2 =e4 d4  | 
w:   |   |   | 
c4 B2A2 B8  | c4 e2d2 c4 B4  | A2G2 ^F2G2 A8  | \
w:   |   |   | 
B6A2 G4 g2f2  | f2e2 e2d2 c8  | 
w:   |   | 
B4 A2B2 A2G2 ^F2G2  | ^F4 A2G2 G8  | |


